!!!COM: Beethoven
!!!OTL: 13 Variationen uber "Es war einmal ein alter Mann" aus "Das rote Kappchen" von K. Ditters von Dittersdorf
!!!Variation: Variation 9 c
**function	**harm	**kern	**kern
*	*	*clefF4	*clefG2
*	*	*k[f#c#g#]	*k[f#c#g#]
*M2/4	*M2/4	*M2/4	*M2/4
*A:	*A:	*A:	*A:
4D	4I	(16ALL	16bLL
.	.	16G#	16cc#
.	.	16F#	16dd#
.	.	16EJJ	16eeJJ
=348	=348	=348	=348
2D	2I	8A)	16cc#LL
.	.	.	16b#
.	.	8r	16cc#
.	.	.	16dd#JJ
.	.	16c#LL	16eeLL
.	.	16B	16dd#
.	.	16c#	16ee
.	.	16d#JJ	16ff#JJ
=349	=349	=349	=349
4D	4V	16eLL	16gg#LL
.	.	16d#	16ff#
.	.	16e	16gg#
.	.	16f#JJ	16aaJJ
4D	4Vb	8g#L	16bbLL
.	.	.	16gg#
.	.	8G#J	16ee
.	.	.	16bJJ
=350	=350	=350	=350
.	.	.	q8dd#
4.D	4.I	8A	16cc#LL
.	.	.	16b#
.	.	8r	16cc#
.	.	.	16dd#JJ
.	.	16ALL	16cc#LL
.	.	16c#	16ee
8D	8IVb	16F#	16dd#
.	.	16AJJ	16ff#JJ
=351	=351	=351	=351
8D	8Vb	16G#LL	16eeLL
.	.	16B	16gg#
8D	8V7b/V	16D#	16ff#
.	.	16BJJ	16aaJJ
4D	4V	16ELL	16gg#LL
.	.	16G#	16ee
.	.	16B	16b
.	.	16eJJ	16g#JJ
=352	=352	=352	=352
2D	2I	8A	16cc#LL
.	.	.	16b#
.	.	8r	16cc#
.	.	.	16dd#JJ
.	.	16c#LL	16eeLL
.	.	16B	16dd#
.	.	16c#	16ee
.	.	16d#JJ	16ff#JJ
=353	=353	=353	=353
4D	4V	16eLL	16gg#LL
.	.	16d#	16ff#
.	.	16e	16gg#
.	.	16f#JJ	16aaJJ
4D	4Vb	8g#L	16bbLL
.	.	.	16gg#
.	.	8G#J	16ee
.	.	.	16bJJ
=354	=354	=354	=354
.	.	.	q8dd#
4.D	4.I	8A	16cc#LL
.	.	.	16b#
.	.	8r	16cc#
.	.	.	16dd#JJ
.	.	16ALL	16cc#LL
.	.	16c#	16ee
8D	8IVb	16F#	16dd#
.	.	16AJJ	16ff#JJ
=355	=355	=355	=355
4.D	4.Vb	8G#	16eeLL
.	.	.	16dd#
.	.	8r	16ee
.	.	.	16ff#JJ
.	.	16G#LL	16eeLL
.	.	16B	16gg#
8D	8V7b/V	16D#	16ff#
.	.	16BJJ	16aaJJ
=356	=356	=356	=356
4D	4V	16ELL	16gg#LL
.	.	16G#	16bb
.	.	16B	16gg#
.	.	16eJJ	16bbJJ
4D	4V/V	16BBLL	16dd#LL
.	.	16D#	16ff#
.	.	16F#	16dd#
.	.	16BJJ	16ff#JJ
=357	=357	=357	=357
2D	2r	2r;	2r;
=358	=358	=358	=358
*M2/2	*M2/2	*M2/2	*M2/2
2.D	2.V	2.EE	2.E
*-	*-	*-	*-
